!!!OTL: "Die Beruhigte" WANN I HALT FRUA AUFSTEH
!!!ARE: Europa, Mitteleuropa, Oesterreich
!!!SCT: Z1234
!!!YEM: Copyright 1995, estate of Helmut Schaffrath.
**kern
*ICvox
*Ivox
*M3/4
*k[f#]
*G:
{4g
8b
8d
8g
8b
=1
4dd
8gg
8g
4b}
=2
{4a
8cc
8d
4f#
=3
4g
8b
8d
4g}
=4
{4g
8b
8d
8g
8b
=5
4dd
8gg
8g
4b}
=6
{4a
8cc
8cc
4a
=7
4g}
{8b
8b
4g
=8
4a
8cc
8cc
4a
=9
4g}
{8b
8b
4g
=10
4a
8cc
8cc
4a
=11
2g}
{8dd
8dd
=12
4gg
8dd
8b
8cc
8b
=13
4g
2r}
==
!!!AGN: Liebes - Lied
!!!ONB: ESAC (Essen Associative Code) Database: ZUCCAL
!!!AMT: simple triple
!!!AIN: vox
!!!EED: Helmut Schaffrath
!!!EEV: 1.0
*-
